; generated by Slic3r Prusa Edition 1.41.3+win64 on 2019-04-01 at 15:40:44

; 

; external perimeters extrusion width = 0.45mm
; perimeters extrusion width = 0.45mm
; infill extrusion width = 0.45mm
; solid infill extrusion width = 0.45mm
; top infill extrusion width = 0.45mm
; first layer extrusion width = 0.42mm

M201 X9000 Y9000 Z500 E10000 ; sets maximum accelerations, mm/sec^2
M203 X500 Y500 Z12 E120 ; sets maximum feedrates, mm/sec
M204 P2000 R1500 T2000 ; sets acceleration (P, T) and retract acceleration (R), mm/sec^2
M205 X10.00 Y10.00 Z0.20 E2.50 ; sets the jerk limits, mm/sec
M205 S0 T0 ; sets the minimum extruding and travel feed rate, mm/sec
M107
M115 U3.1.0 ; tell printer latest fw version
M83  ; extruder relative mode
M204 S2000 T1500 ; MK2 firmware only supports the old M204 format
M104 S215 ; set extruder temp
M140 S60 ; set bed temp
M190 S60 ; wait for bed temp
M109 S215 ; wait for extruder temp
G28 W ; home all without mesh bed level
G80 ; mesh bed leveling
G1 Y-3.0 F1000.0 ; go outside print area
G92 E0.0
G1 X60.0 E9.0  F1000.0 ; intro line
G1 X100.0 E12.5  F1000.0 ; intro line
G92 E0.0
M900 K30 ; Filament gcode
G21 ; set units to millimeters
G90 ; use absolute coordinates
M83 ; use relative distances for extrusion
;BEFORE_LAYER_CHANGE
G92 E0.0
;0.2


G1 E-1.00000 F2100.00000
G1 Z0.600 F10800.000
;AFTER_LAYER_CHANGE
;0.2
G1 X161.561 Y40.924
G1 Z0.200
G1 E1.00000 F2100.00000
M204 S1000
G1 F1200
G1 X192.888 Y40.881 E0.98225
G1 X193.722 Y41.048 E0.02664
G1 X194.429 Y41.519 E0.02664
G1 X194.903 Y42.224 E0.02664
G1 X195.073 Y43.060 E0.02676
G1 X195.073 Y67.570 E0.76848
G1 X193.422 Y135.056 E2.11660
G1 X193.323 Y135.652 E0.01896
G1 X193.031 Y136.247 E0.02078
G1 X192.572 Y136.730 E0.02089
G1 X191.989 Y137.053 E0.02089
G1 X191.336 Y137.185 E0.02089
G1 X163.457 Y137.187 E0.87414
G1 X162.812 Y137.088 E0.02044
G1 X162.217 Y136.797 E0.02078
G1 X161.736 Y136.341 E0.02078
G1 X157.424 Y130.777 E0.22072
G1 X157.148 Y130.239 E0.01896
G1 X157.029 Y129.643 E0.01908
G1 X157.076 Y83.506 E1.44658
G1 X157.676 Y48.505 E1.09759
G1 X157.776 Y47.897 E0.01930
G1 X160.066 Y42.027 E0.19758
G1 X160.338 Y41.634 E0.01498
G1 X160.689 Y41.310 E0.01498
G1 X161.105 Y41.068 E0.01510
G1 X161.504 Y40.942 E0.01310
; PURGING FINISHED
G1 F8640
G1 X165.618 Y40.934 E-0.95000
G1 E-0.05000 F2100.00000
G1 Z0.800 F10800.000
G1 X188.539 Y112.087
G1 Z0.200
G1 E1.00000 F2100.00000
G1 F1200
G1 X188.936 Y111.965 E0.01303
G1 X189.224 Y111.932 E0.00908
G1 X189.577 Y111.972 E0.01114
G1 X189.912 Y112.089 E0.01114
G1 X190.213 Y112.278 E0.01114
G1 X190.464 Y112.529 E0.01114
G1 X190.653 Y112.830 E0.01114
G1 X190.770 Y113.166 E0.01114
G1 X190.810 Y113.519 E0.01114
G1 X190.770 Y113.871 E0.01114
G1 X190.653 Y114.207 E0.01114
G1 X190.464 Y114.508 E0.01114
G1 X190.213 Y114.759 E0.01114
G1 X189.912 Y114.948 E0.01114
G1 X189.577 Y115.065 E0.01114
G1 X189.224 Y115.105 E0.01114
G1 X188.871 Y115.065 E0.01114
G1 X188.536 Y114.948 E0.01114
G1 X188.235 Y114.759 E0.01114
G1 X187.984 Y114.508 E0.01114
G1 X187.795 Y114.207 E0.01114
G1 X187.677 Y113.871 E0.01114
G1 X187.638 Y113.519 E0.01114
G1 X187.677 Y113.166 E0.01114
G1 X187.795 Y112.830 E0.01114
G1 X187.984 Y112.529 E0.01114
G1 X188.235 Y112.278 E0.01114
G1 X188.488 Y112.119 E0.00938
G1 X188.579 Y111.689 F10800.000
G1 X187.854 Y112.126
G1 F1200
G1 X187.687 Y112.293 E0.00742
G1 X187.453 Y112.666 E0.01380
G1 X187.307 Y113.081 E0.01380
G1 X187.258 Y113.519 E0.01380
G1 X187.307 Y113.956 E0.01380
G1 X187.453 Y114.371 E0.01380
G1 X187.687 Y114.744 E0.01380
G1 X187.998 Y115.055 E0.01380
G1 X188.371 Y115.290 E0.01380
G1 X188.787 Y115.435 E0.01380
G1 X189.224 Y115.484 E0.01380
G1 X189.661 Y115.435 E0.01380
G1 X190.077 Y115.290 E0.01380
G1 X190.450 Y115.055 E0.01380
G1 X190.647 Y114.858 E0.00875
G1 X190.647 Y134.411 E0.61308
G1 X166.594 Y134.411 E0.75417
G1 X166.761 Y134.244 E0.00742
G1 X166.956 Y133.933 E0.01153
G1 X167.139 Y133.467 E0.01569
G1 X167.190 Y133.019 E0.01415
G1 X167.140 Y132.581 E0.01380
G1 X166.995 Y132.166 E0.01380
G1 X166.761 Y131.793 E0.01380
G1 X166.450 Y131.482 E0.01380
G1 X166.077 Y131.247 E0.01380
G1 X165.661 Y131.102 E0.01380
G1 X165.224 Y131.053 E0.01380
G1 X164.859 Y131.094 E0.01153
G1 X164.380 Y131.241 E0.01569
G1 X164.051 Y131.448 E0.01220
G1 X164.051 Y128.931 E0.07892
G1 X159.801 Y128.931 E0.13326
G1 X159.801 Y117.606 E0.35511
G1 X161.926 Y117.606 E0.06663
G1 X161.926 Y112.126 E0.17182
G1 X187.794 Y112.126 E0.81108
G1 F8640
G1 X187.687 Y112.293 E-0.04588
G1 X187.453 Y112.666 E-0.10164
G1 X187.307 Y113.081 E-0.10164
G1 X187.258 Y113.519 E-0.10164
G1 X187.307 Y113.956 E-0.10164
G1 X187.453 Y114.371 E-0.10164
G1 X187.687 Y114.744 E-0.10164
G1 X187.998 Y115.055 E-0.10164
G1 X188.371 Y115.290 E-0.10164
G1 X188.743 Y115.420 E-0.09097
G1 E-0.05000 F2100.00000
G1 Z0.800 F10800.000
G1 X190.594 Y112.126
G1 Z0.200
G1 E1.00000 F2100.00000
G1 F1200
G1 X190.647 Y112.126 E0.00167
G1 X190.647 Y112.179 E0.00167
G1 X190.636 Y112.168 E0.00048
G1 F8640
G1 X190.647 Y112.126 E-0.01011
G1 X190.647 Y112.179 E-0.01230
G1 X190.636 Y112.168 E-0.00354
G1 E-0.97405 F2100.00000
G1 Z0.800 F10800.000
G1 X163.674 Y129.309
G1 Z0.200
G1 E1.00000 F2100.00000
G1 F1200
G1 X159.424 Y129.309 E0.13326
G1 X159.424 Y117.229 E0.37876
G1 X161.549 Y117.229 E0.06663
G1 X161.549 Y111.749 E0.17182
G1 X191.024 Y111.749 E0.92417
G1 X191.024 Y134.789 E0.72240
G1 X163.674 Y134.789 E0.85754
G1 X163.674 Y133.341 E0.04539
G1 X163.795 Y133.707 E0.01208
G1 X163.984 Y134.008 E0.01114
G1 X164.235 Y134.259 E0.01114
G1 X164.480 Y134.413 E0.00908
G1 X164.867 Y134.565 E0.01303
G1 X165.224 Y134.605 E0.01126
G1 X165.577 Y134.565 E0.01114
G1 X165.912 Y134.448 E0.01114
G1 X166.213 Y134.259 E0.01114
G1 X166.464 Y134.008 E0.01114
G1 X166.618 Y133.762 E0.00908
G1 X166.770 Y133.375 E0.01303
G1 X166.810 Y133.019 E0.01126
G1 X166.771 Y132.666 E0.01114
G1 X166.653 Y132.330 E0.01114
G1 X166.464 Y132.029 E0.01114
G1 X166.213 Y131.778 E0.01114
G1 X165.912 Y131.589 E0.01114
G1 X165.577 Y131.472 E0.01114
G1 X165.224 Y131.432 E0.01114
G1 X164.936 Y131.465 E0.00908
G1 X164.539 Y131.587 E0.01303
G1 X164.235 Y131.778 E0.01126
G1 X163.984 Y132.029 E0.01114
G1 X163.795 Y132.330 E0.01114
G1 X163.674 Y132.696 E0.01208
G1 X163.674 Y129.369 E0.10433
G1 X163.669 Y128.909 F10800.000
G1 X163.888 Y128.818
G1 F1200
G1 X160.084 Y125.014 E0.16917
G1 X160.084 Y125.549 E0.01682
G1 X163.183 Y128.649 E0.13784
G1 X162.648 Y128.649 E0.01682
G1 X160.084 Y126.084 E0.11405
G1 X160.084 Y126.619 E0.01682
G1 X162.114 Y128.649 E0.09027
G1 X161.579 Y128.649 E0.01682
G1 X160.084 Y127.154 E0.06648
G1 X160.084 Y127.689 E0.01682
G1 X161.044 Y128.649 E0.04270
G1 X160.509 Y128.649 E0.01682
G1 X159.914 Y128.054 E0.02646
G1 F8640
G1 X160.509 Y128.649 E-0.19426
G1 X161.044 Y128.649 E-0.12350
G1 X160.084 Y127.689 E-0.31350
G1 X160.084 Y127.154 E-0.12350
G1 X160.682 Y127.752 E-0.19525
G1 E-0.05000 F2100.00000
G1 Z0.800 F10800.000
G1 X164.539 Y131.074
G1 Z0.200
G1 E1.00000 F2100.00000
G1 F1200
G1 X164.334 Y130.869 E0.00913
G1 X164.334 Y130.334 E0.01682
G1 X164.814 Y130.814 E0.02136
G1 X165.224 Y130.768 E0.01297
G1 X165.313 Y130.778 E0.00281
G1 X164.334 Y129.799 E0.04354
G1 X164.334 Y129.264 E0.01682
G1 X166.363 Y131.294 E0.09025
G1 F8640
G1 X164.334 Y129.264 E-0.66267
G1 X164.334 Y129.799 E-0.12350
G1 X164.836 Y130.301 E-0.16383
G1 E-0.05000 F2100.00000
G1 Z0.800 F10800.000
G1 X167.763 Y134.298
G1 Z0.200
G1 E1.00000 F2100.00000
G1 F1200
G1 X167.299 Y133.834 E0.02065
G1 X167.416 Y133.536 E0.01008
G1 X167.428 Y133.428 E0.00339
G1 X168.128 Y134.129 E0.03114
G1 X168.663 Y134.129 E0.01682
G1 X167.464 Y132.930 E0.05332
G1 X167.418 Y132.518 E0.01304
G1 X167.327 Y132.257 E0.00868
G1 X169.198 Y134.129 E0.08322
G1 X169.733 Y134.129 E0.01682
G1 X160.084 Y124.480 E0.42912
G1 X160.084 Y123.945 E0.01682
G1 X170.268 Y134.129 E0.45291
G1 X170.803 Y134.129 E0.01682
G1 X160.084 Y123.410 E0.47670
G1 X160.084 Y122.875 E0.01682
G1 X171.337 Y134.129 E0.50048
G1 X171.872 Y134.129 E0.01682
G1 X160.084 Y122.340 E0.52427
G1 X160.084 Y121.805 E0.01682
G1 X172.407 Y134.129 E0.54806
G1 X172.942 Y134.129 E0.01682
G1 X160.084 Y121.270 E0.57184
G1 X160.084 Y120.736 E0.01682
G1 X173.477 Y134.129 E0.59563
G1 X174.012 Y134.129 E0.01682
G1 X160.084 Y120.201 E0.61941
G1 X160.084 Y119.666 E0.01682
G1 X174.547 Y134.129 E0.64320
G1 X175.081 Y134.129 E0.01682
G1 X160.084 Y119.131 E0.66699
G1 X160.084 Y118.596 E0.01682
G1 X175.616 Y134.129 E0.69077
G1 X176.151 Y134.129 E0.01682
G1 X160.084 Y118.061 E0.71456
G1 X160.084 Y117.888 E0.00544
G1 X160.446 Y117.888 E0.01138
G1 X176.686 Y134.129 E0.72225
G1 X177.221 Y134.129 E0.01682
G1 X160.981 Y117.888 E0.72225
G1 X161.515 Y117.888 E0.01682
G1 X177.756 Y134.129 E0.72225
G1 X178.291 Y134.129 E0.01682
G1 X162.050 Y117.888 E0.72225
G1 X162.209 Y117.888 E0.00499
G1 X162.209 Y117.512 E0.01183
G1 X178.825 Y134.129 E0.73899
G1 X179.360 Y134.129 E0.01682
G1 X162.209 Y116.977 E0.76277
G1 X162.209 Y116.442 E0.01682
G1 X179.895 Y134.129 E0.78656
G1 X180.430 Y134.129 E0.01682
G1 X162.209 Y115.908 E0.81034
G1 X162.209 Y115.373 E0.01682
G1 X180.965 Y134.129 E0.83413
G1 X181.500 Y134.129 E0.01682
G1 X162.209 Y114.838 E0.85792
G1 X162.209 Y114.303 E0.01682
G1 X182.034 Y134.129 E0.88170
G1 X182.569 Y134.129 E0.01682
G1 X162.209 Y113.768 E0.90549
G1 X162.209 Y113.233 E0.01682
G1 X183.104 Y134.129 E0.92928
G1 X183.639 Y134.129 E0.01682
G1 X162.209 Y112.698 E0.95306
G1 X162.209 Y112.408 E0.00912
G1 X162.454 Y112.408 E0.00770
G1 X184.174 Y134.129 E0.96596
G1 X184.709 Y134.129 E0.01682
G1 X162.988 Y112.408 E0.96596
G1 X163.523 Y112.408 E0.01682
G1 X185.244 Y134.129 E0.96596
G1 X185.778 Y134.129 E0.01682
G1 X164.058 Y112.408 E0.96596
G1 X164.593 Y112.408 E0.01682
G1 X186.313 Y134.129 E0.96596
G1 X186.848 Y134.129 E0.01682
G1 X165.128 Y112.408 E0.96596
G1 X165.663 Y112.408 E0.01682
G1 X187.383 Y134.129 E0.96596
G1 X187.918 Y134.129 E0.01682
G1 X166.198 Y112.408 E0.96596
G1 X166.732 Y112.408 E0.01682
G1 X188.453 Y134.129 E0.96596
G1 X188.987 Y134.129 E0.01682
G1 X167.267 Y112.408 E0.96596
G1 X167.802 Y112.408 E0.01682
G1 X189.522 Y134.129 E0.96596
G1 X190.057 Y134.129 E0.01682
G1 X168.337 Y112.408 E0.96596
G1 X168.872 Y112.408 E0.01682
G1 X190.364 Y133.901 E0.95582
G1 X190.364 Y133.366 E0.01682
G1 X169.407 Y112.408 E0.93204
G1 X169.941 Y112.408 E0.01682
G1 X190.364 Y132.831 E0.90825
G1 X190.364 Y132.296 E0.01682
G1 X170.476 Y112.408 E0.88446
G1 X171.011 Y112.408 E0.01682
G1 X190.364 Y131.761 E0.86068
G1 X190.364 Y131.226 E0.01682
G1 X171.546 Y112.408 E0.83689
G1 X172.081 Y112.408 E0.01682
G1 X190.364 Y130.692 E0.81311
G1 X190.364 Y130.157 E0.01682
G1 X172.616 Y112.408 E0.78932
G1 X173.151 Y112.408 E0.01682
G1 X190.364 Y129.622 E0.76553
G1 X190.364 Y129.087 E0.01682
G1 X173.685 Y112.408 E0.74175
G1 X174.220 Y112.408 E0.01682
G1 X190.364 Y128.552 E0.71796
G1 X190.364 Y128.017 E0.01682
G1 X174.755 Y112.408 E0.69417
G1 X175.290 Y112.408 E0.01682
G1 X190.364 Y127.482 E0.67039
G1 X190.364 Y126.948 E0.01682
G1 X175.825 Y112.408 E0.64660
G1 X176.360 Y112.408 E0.01682
G1 X190.364 Y126.413 E0.62282
G1 X190.364 Y125.878 E0.01682
G1 X176.895 Y112.408 E0.59903
G1 X177.429 Y112.408 E0.01682
G1 X190.364 Y125.343 E0.57524
G1 X190.364 Y124.808 E0.01682
G1 X177.964 Y112.408 E0.55146
G1 X178.499 Y112.408 E0.01682
G1 X190.364 Y124.273 E0.52767
G1 X190.364 Y123.739 E0.01682
G1 X179.034 Y112.408 E0.50388
G1 X179.569 Y112.408 E0.01682
G1 X190.364 Y123.204 E0.48010
G1 X190.364 Y122.669 E0.01682
G1 X180.104 Y112.408 E0.45631
G1 X180.638 Y112.408 E0.01682
G1 X190.364 Y122.134 E0.43253
G1 X190.364 Y121.599 E0.01682
G1 X181.173 Y112.408 E0.40874
G1 X181.708 Y112.408 E0.01682
G1 X190.364 Y121.064 E0.38495
G1 X190.364 Y120.529 E0.01682
G1 X182.243 Y112.408 E0.36117
G1 X182.778 Y112.408 E0.01682
G1 X190.364 Y119.995 E0.33738
G1 X190.364 Y119.460 E0.01682
G1 X183.313 Y112.408 E0.31359
G1 X183.848 Y112.408 E0.01682
G1 X190.364 Y118.925 E0.28981
G1 X190.364 Y118.390 E0.01682
G1 X184.382 Y112.408 E0.26602
G1 X184.917 Y112.408 E0.01682
G1 X190.364 Y117.855 E0.24224
G1 X190.364 Y117.320 E0.01682
G1 X188.760 Y115.717 E0.07132
G1 X189.224 Y115.769 E0.01467
G1 X189.335 Y115.756 E0.00351
G1 X190.364 Y116.786 E0.04577
G1 X190.364 Y116.251 E0.01682
G1 X189.800 Y115.686 E0.02510
G1 X190.196 Y115.548 E0.01320
G1 X190.534 Y115.885 E0.01503
G1 F8640
G1 X190.196 Y115.548 E-0.11034
G1 X189.800 Y115.686 E-0.09693
G1 X190.364 Y116.251 E-0.18431
G1 X190.364 Y116.786 E-0.12350
G1 X189.335 Y115.756 E-0.33606
G1 X189.224 Y115.769 E-0.02579
G1 X188.909 Y115.733 E-0.07308
G1 E-0.05000 F2100.00000
G1 Z0.800 F10800.000
G1 X190.737 Y114.470
G1 Z0.200
G1 E1.00000 F2100.00000
G1 F1200
G1 X190.801 Y114.389 E0.00058
G1 X190.817 Y114.334 E0.00032
G1 F8640
G1 X190.801 Y114.389 E-0.01310
G1 X190.737 Y114.470 E-0.02382
G1 E-0.96308 F2100.00000
G1 Z0.800 F10800.000
G1 X190.817 Y112.703
G1 Z0.200
G1 E1.00000 F2100.00000
G1 F1200
G1 X190.801 Y112.648 E0.00032
G1 X190.737 Y112.567 E0.00058
G1 F8640
G1 X190.801 Y112.648 E-0.02382
G1 X190.817 Y112.703 E-0.01310
G1 E-0.96308 F2100.00000
G1 Z0.800 F10800.000
G1 X187.328 Y112.680
G1 Z0.200
G1 E1.00000 F2100.00000
G1 F1200
G1 X187.057 Y112.408 E0.01207
G1 X186.522 Y112.408 E0.01682
G1 X187.056 Y112.943 E0.02377
G1 X187.030 Y113.018 E0.00250
G1 X186.986 Y113.408 E0.01233
G1 X185.987 Y112.408 E0.04443
G1 X185.452 Y112.408 E0.01682
G1 X187.289 Y114.245 E0.08168
G1 F8640
G1 X185.452 Y112.408 E-0.59977
G1 X185.987 Y112.408 E-0.12350
G1 X186.681 Y113.103 E-0.22673
G1 E-0.05000 F2100.00000
G1 Z0.800 F10800.000
G1 X164.355 Y134.599
G1 Z0.200
G1 E1.00000 F2100.00000
G1 F1200
G1 X163.862 Y134.415 E0.00989
G1 F8640
G1 X164.355 Y134.599 E-0.12148
G1 E-0.87852 F2100.00000
G1 Z0.800 F10800.000
G1 X165.168 Y101.324
G1 Z0.200
G1 E1.00000 F2100.00000
G1 F1200
G1 X164.781 Y101.172 E0.01303
G1 X164.536 Y101.018 E0.00908
G1 X164.284 Y100.767 E0.01114
G1 X164.095 Y100.466 E0.01114
G1 X163.978 Y100.131 E0.01114
G1 X163.938 Y99.778 E0.01114
G1 X163.978 Y99.425 E0.01114
G1 X164.095 Y99.089 E0.01114
G1 X164.284 Y98.789 E0.01114
G1 X164.536 Y98.537 E0.01114
G1 X164.840 Y98.346 E0.01126
G1 X165.237 Y98.224 E0.01303
G1 X165.525 Y98.191 E0.00908
G1 X165.878 Y98.231 E0.01114
G1 X166.213 Y98.348 E0.01114
G1 X166.514 Y98.537 E0.01114
G1 X166.765 Y98.789 E0.01114
G1 X166.954 Y99.089 E0.01114
G1 X167.071 Y99.425 E0.01114
G1 X167.111 Y99.778 E0.01114
G1 X167.071 Y100.135 E0.01126
G1 X166.919 Y100.521 E0.01303
G1 X166.765 Y100.767 E0.00908
G1 X166.514 Y101.018 E0.01114
G1 X166.213 Y101.207 E0.01114
G1 X165.878 Y101.324 E0.01114
G1 X165.525 Y101.364 E0.01114
G1 X165.227 Y101.330 E0.00938
G1 X164.888 Y101.610 F10800.000
G1 X164.468 Y101.421
G1 F1200
G1 X164.102 Y101.421 E0.01147
G1 X164.102 Y101.117 E0.00951
G1 X164.299 Y101.315 E0.00875
G1 X164.417 Y101.389 E0.00437
G1 F8640
G1 X164.102 Y101.421 E-0.07315
G1 X164.102 Y101.117 E-0.07003
G1 X164.299 Y101.315 E-0.06442
G1 X164.417 Y101.389 E-0.03215
G1 E-0.76026 F2100.00000
G1 Z0.800 F10800.000
G1 X166.582 Y101.421
G1 Z0.200
G1 E1.00000 F2100.00000
G1 F1200
G1 X166.750 Y101.315 E0.00625
G1 X167.062 Y101.003 E0.01380
G1 X167.257 Y100.692 E0.01153
G1 X167.440 Y100.226 E0.01569
G1 X167.490 Y99.778 E0.01415
G1 X167.441 Y99.340 E0.01380
G1 X167.296 Y98.925 E0.01380
G1 X167.062 Y98.552 E0.01380
G1 X166.750 Y98.241 E0.01380
G1 X166.378 Y98.007 E0.01380
G1 X165.962 Y97.861 E0.01380
G1 X165.525 Y97.812 E0.01380
G1 X165.159 Y97.853 E0.01153
G1 X164.681 Y98.001 E0.01569
G1 X164.299 Y98.241 E0.01415
G1 X164.102 Y98.438 E0.00875
G1 X164.102 Y95.941 E0.07831
G1 X159.852 Y95.941 E0.13326
G1 X159.852 Y84.115 E0.37079
G1 X161.977 Y84.115 E0.06663
G1 X161.977 Y78.635 E0.17182
G1 X188.468 Y78.635 E0.83061
G1 X188.299 Y78.741 E0.00625
G1 X187.988 Y79.052 E0.01380
G1 X187.754 Y79.425 E0.01380
G1 X187.608 Y79.840 E0.01380
G1 X187.559 Y80.278 E0.01380
G1 X187.608 Y80.715 E0.01380
G1 X187.754 Y81.131 E0.01380
G1 X187.988 Y81.503 E0.01380
G1 X188.299 Y81.815 E0.01380
G1 X188.672 Y82.049 E0.01380
G1 X189.087 Y82.194 E0.01380
G1 X189.525 Y82.243 E0.01380
G1 X189.962 Y82.194 E0.01380
G1 X190.378 Y82.049 E0.01380
G1 X190.750 Y81.815 E0.01380
