; generated by Slic3r Prusa Edition 1.41.3+win64 on 2019-05-15 at 15:21:06

; 

; external perimeters extrusion width = 0.45mm
; perimeters extrusion width = 0.45mm
; infill extrusion width = 0.45mm
; solid infill extrusion width = 0.45mm
; top infill extrusion width = 0.45mm
; first layer extrusion width = 0.42mm

M201 X9000 Y9000 Z500 E10000 ; sets maximum accelerations, mm/sec^2
M203 X500 Y500 Z12 E120 ; sets maximum feedrates, mm/sec
M204 P2000 R1500 T2000 ; sets acceleration (P, T) and retract acceleration (R), mm/sec^2
M205 X10.00 Y10.00 Z0.20 E2.50 ; sets the jerk limits, mm/sec
M205 S0 T0 ; sets the minimum extruding and travel feed rate, mm/sec
M107
M115 U3.1.0 ; tell printer latest fw version
M83  ; extruder relative mode
M204 S2000 T1500 ; MK2 firmware only supports the old M204 format
M104 S215 ; set extruder temp
M140 S60 ; set bed temp
M190 S60 ; wait for bed temp
M109 S215 ; wait for extruder temp
G28 W ; home all without mesh bed level
G80 ; mesh bed leveling
G1 Y-3.0 F1000.0 ; go outside print area
G92 E0.0
G1 X60.0 E9.0  F1000.0 ; intro line
G1 X100.0 E12.5  F1000.0 ; intro line
G92 E0.0
M900 K30 ; Filament gcode
G21 ; set units to millimeters
G90 ; use absolute coordinates
M83 ; use relative distances for extrusion
;BEFORE_LAYER_CHANGE
G92 E0.0
;0.2


G1 E-0.80000 F2100.00000
G1 Z0.600 F10800.000
;AFTER_LAYER_CHANGE
;0.2
G1 X139.645 Y52.960
G1 Z0.200
G1 E0.80000 F2100.00000
M204 S1000
G1 F1200
G1 X140.453 Y52.549 E0.02844
G1 X140.977 Y52.476 E0.01658
G1 X190.367 Y51.639 E1.54882
G1 X221.292 Y51.639 E0.96962
G1 X222.119 Y51.802 E0.02642
G1 X222.822 Y52.266 E0.02642
G1 X223.298 Y52.961 E0.02642
G1 X223.477 Y53.785 E0.02642
G1 X223.473 Y78.419 E0.77238
G1 X223.327 Y79.083 E0.02134
G1 X222.981 Y79.674 E0.02146
G1 X222.473 Y80.127 E0.02134
G1 X221.851 Y80.402 E0.02134
G1 X221.331 Y80.475 E0.01646
G1 X171.939 Y81.312 E1.54888
G1 X142.986 Y81.307 E0.90781
G1 X142.169 Y81.084 E0.02653
G1 X141.496 Y80.566 E0.02664
G1 X137.134 Y74.947 E0.22301
G1 X136.778 Y74.208 E0.02574
G1 X136.704 Y73.651 E0.01760
G1 X136.735 Y59.777 E0.43503
G1 X139.071 Y53.663 E0.20521
G1 X139.607 Y53.006 E0.02656
; PURGING FINISHED
G1 F8640
G1 X140.453 Y52.549 E-0.22218
G1 X140.977 Y52.476 E-0.12207
G1 X142.777 Y52.445 E-0.41575
G1 E-0.04000 F2100.00000
G1 Z0.800 F10800.000
G1 X144.718 Y75.213
G1 Z0.200
G1 E0.80000 F2100.00000
G1 F1200
G1 X145.115 Y75.090 E0.01303
G1 X145.403 Y75.058 E0.00908
G1 X145.756 Y75.097 E0.01114
G1 X146.091 Y75.215 E0.01114
G1 X146.392 Y75.404 E0.01114
G1 X146.643 Y75.655 E0.01114
G1 X146.832 Y75.956 E0.01114
G1 X146.949 Y76.291 E0.01114
G1 X146.989 Y76.644 E0.01114
G1 X146.949 Y77.001 E0.01126
G1 X146.797 Y77.388 E0.01303
G1 X146.643 Y77.633 E0.00908
G1 X146.392 Y77.884 E0.01114
G1 X146.091 Y78.073 E0.01114
G1 X145.756 Y78.191 E0.01114
G1 X145.403 Y78.230 E0.01114
G1 X145.046 Y78.190 E0.01126
G1 X144.659 Y78.038 E0.01303
G1 X144.413 Y77.884 E0.00908
G1 X144.162 Y77.633 E0.01114
G1 X143.973 Y77.332 E0.01114
G1 X143.856 Y76.997 E0.01114
G1 X143.816 Y76.644 E0.01114
G1 X143.856 Y76.291 E0.01114
G1 X143.973 Y75.956 E0.01114
G1 X144.162 Y75.655 E0.01114
G1 X144.413 Y75.404 E0.01114
G1 X144.667 Y75.245 E0.00938
G1 X144.757 Y74.815 F10800.000
G1 F8640
G1 X145.115 Y75.090 E-0.10939
G1 X145.403 Y75.058 E-0.06689
G1 X145.756 Y75.097 E-0.08202
G1 X146.091 Y75.215 E-0.08202
G1 X146.392 Y75.404 E-0.08202
G1 X146.643 Y75.655 E-0.08202
G1 X146.832 Y75.956 E-0.08202
G1 X146.949 Y76.291 E-0.08202
G1 X146.989 Y76.644 E-0.08202
G1 X146.984 Y76.685 E-0.00956
G1 E-0.04000 F2100.00000
G1 Z0.800 F10800.000
G1 X143.730 Y77.653
G1 Z0.200
G1 E0.80000 F2100.00000
G1 F1200
G1 X143.866 Y77.870 E0.00802
G1 X144.177 Y78.181 E0.01380
G1 X144.488 Y78.376 E0.01153
G1 X144.897 Y78.537 E0.01378
G1 X143.730 Y78.537 E0.03661
G1 X143.730 Y77.713 E0.02583
G1 F8640
G1 X143.866 Y77.870 E-0.04787
G1 X144.177 Y78.181 E-0.10164
G1 X144.488 Y78.376 E-0.08487
G1 X144.897 Y78.537 E-0.10145
G1 X143.730 Y78.537 E-0.26958
G1 X143.730 Y77.867 E-0.15459
G1 E-0.04000 F2100.00000
G1 Z0.800 F10800.000
G1 X143.730 Y75.635
G1 Z0.200
G1 E0.80000 F2100.00000
G1 F1200
G1 X143.730 Y73.057 E0.08083
G1 X139.480 Y73.057 E0.13326
G1 X139.480 Y60.731 E0.38647
G1 X141.605 Y60.731 E0.06663
G1 X141.605 Y55.251 E0.17182
G1 X168.935 Y55.251 E0.85691
G1 X168.559 Y55.367 E0.01232
G1 X168.177 Y55.607 E0.01415
G1 X167.866 Y55.918 E0.01380
G1 X167.631 Y56.291 E0.01380
G1 X167.486 Y56.707 E0.01380
G1 X167.437 Y57.144 E0.01380
G1 X167.486 Y57.581 E0.01380
G1 X167.631 Y57.997 E0.01380
G1 X167.866 Y58.370 E0.01380
G1 X168.177 Y58.681 E0.01380
G1 X168.550 Y58.915 E0.01380
G1 X168.965 Y59.060 E0.01380
G1 X169.403 Y59.110 E0.01380
G1 X169.840 Y59.060 E0.01380
G1 X170.255 Y58.915 E0.01380
G1 X170.628 Y58.681 E0.01380
G1 X170.939 Y58.370 E0.01380
G1 X171.174 Y57.997 E0.01380
G1 X171.325 Y57.524 E0.01556
G1 X171.325 Y78.537 E0.65883
G1 X145.907 Y78.537 E0.79697
G1 X146.255 Y78.415 E0.01156
G1 X146.628 Y78.181 E0.01380
G1 X146.939 Y77.870 E0.01380
G1 X147.135 Y77.558 E0.01153
G1 X147.318 Y77.092 E0.01569
G1 X147.368 Y76.644 E0.01415
G1 X147.319 Y76.207 E0.01380
G1 X147.174 Y75.791 E0.01380
G1 X146.939 Y75.418 E0.01380
G1 X146.628 Y75.107 E0.01380
G1 X146.255 Y74.873 E0.01380
G1 X145.840 Y74.727 E0.01380
G1 X145.403 Y74.678 E0.01380
G1 X145.037 Y74.719 E0.01153
G1 X144.559 Y74.867 E0.01569
G1 X144.177 Y75.107 E0.01415
G1 X143.866 Y75.418 E0.01380
G1 X143.762 Y75.584 E0.00613
G1 F8640
G1 X143.730 Y73.057 E-0.58355
G1 X142.965 Y73.057 E-0.17645
G1 E-0.04000 F2100.00000
G1 Z0.800 F10800.000
G1 X168.162 Y58.133
G1 Z0.200
G1 E0.80000 F2100.00000
G1 F1200
G1 X167.973 Y57.832 E0.01114
G1 X167.856 Y57.497 E0.01114
G1 X167.816 Y57.144 E0.01114
G1 X167.856 Y56.791 E0.01114
G1 X167.973 Y56.456 E0.01114
G1 X168.162 Y56.155 E0.01114
G1 X168.413 Y55.904 E0.01114
G1 X168.718 Y55.713 E0.01126
G1 X169.115 Y55.590 E0.01303
G1 X169.403 Y55.558 E0.00908
G1 X169.756 Y55.597 E0.01114
G1 X170.091 Y55.715 E0.01114
G1 X170.395 Y55.906 E0.01126
G1 X170.678 Y56.210 E0.01303
G1 X170.832 Y56.456 E0.00908
G1 X170.949 Y56.791 E0.01114
G1 X170.989 Y57.144 E0.01114
G1 X170.949 Y57.497 E0.01114
G1 X170.832 Y57.832 E0.01114
G1 X170.643 Y58.133 E0.01114
G1 X170.392 Y58.384 E0.01114
G1 X170.091 Y58.573 E0.01114
G1 X169.756 Y58.691 E0.01114
G1 X169.403 Y58.730 E0.01114
G1 X169.050 Y58.691 E0.01114
G1 X168.714 Y58.573 E0.01114
G1 X168.413 Y58.384 E0.01114
G1 X168.205 Y58.175 E0.00926
G1 X167.811 Y58.186 F10800.000
G1 F8640
G1 X167.973 Y57.832 E-0.09558
G1 X167.856 Y57.497 E-0.08202
G1 X167.816 Y57.144 E-0.08202
G1 X167.856 Y56.791 E-0.08202
G1 X167.973 Y56.456 E-0.08202
G1 X168.162 Y56.155 E-0.08202
G1 X168.413 Y55.904 E-0.08202
G1 X168.718 Y55.713 E-0.08294
G1 X169.087 Y55.599 E-0.08935
G1 E-0.04000 F2100.00000
G1 Z0.800 F10800.000
G1 X169.907 Y55.251
G1 Z0.200
G1 E0.80000 F2100.00000
G1 F1200
G1 X171.325 Y55.251 E0.04446
G1 X171.325 Y56.764 E0.04742
G1 X171.174 Y56.291 E0.01556
G1 X170.978 Y55.980 E0.01153
G1 X170.638 Y55.613 E0.01569
G1 X170.255 Y55.373 E0.01415
G1 X169.964 Y55.271 E0.00968
G1 F8640
G1 X171.325 Y55.251 E-0.31440
G1 X171.325 Y56.764 E-0.34923
G1 X171.198 Y56.366 E-0.09637
G1 E-0.04000 F2100.00000
G1 Z0.800 F10800.000
G1 X143.353 Y73.434
G1 Z0.200
G1 E0.80000 F2100.00000
G1 F1200
G1 X139.103 Y73.434 E0.13326
G1 X139.103 Y60.354 E0.41011
G1 X141.228 Y60.354 E0.06663
G1 X141.228 Y54.874 E0.17182
G1 X171.703 Y54.874 E0.95552
G1 X171.703 Y78.914 E0.75376
G1 X143.353 Y78.914 E0.88889
G1 X143.353 Y73.494 E0.16994
G1 X143.175 Y73.076 F10800.000
G1 X143.597 Y72.944
G1 F1200
G1 X139.762 Y69.109 E0.17184
G1 X139.762 Y69.648 E0.01708
G1 X142.888 Y72.774 E0.14009
G1 X142.349 Y72.774 E0.01708
G1 X139.762 Y70.187 E0.11594
G1 X139.762 Y70.726 E0.01708
G1 X141.811 Y72.774 E0.09178
G1 X141.272 Y72.774 E0.01708
G1 X139.762 Y71.265 E0.06763
G1 X139.762 Y71.804 E0.01708
G1 X140.733 Y72.774 E0.04348
G1 X140.194 Y72.774 E0.01708
G1 X139.593 Y72.173 E0.02693
G1 F8640
G1 X140.194 Y72.774 E-0.19627
G1 X140.733 Y72.774 E-0.12444
G1 X139.762 Y71.804 E-0.31685
G1 X139.762 Y71.274 E-0.12245
G1 E-0.04000 F2100.00000
G1 Z0.800 F10800.000
G1 X143.843 Y74.267
G1 Z0.200
G1 E0.80000 F2100.00000
G1 F1200
G1 X144.282 Y74.707 E0.01970
G1 X144.440 Y74.608 E0.00590
G1 X144.656 Y74.541 E0.00715
G1 X144.012 Y73.898 E0.02882
G1 X144.012 Y73.359 E0.01708
G1 X145.083 Y74.430 E0.04797
G1 X145.403 Y74.394 E0.01019
G1 X145.609 Y74.417 E0.00659
G1 X139.762 Y68.570 E0.26201
G1 X139.762 Y68.031 E0.01708
G1 X149.985 Y78.254 E0.45812
G1 X150.524 Y78.254 E0.01708
G1 X139.762 Y67.492 E0.48227
G1 X139.762 Y66.953 E0.01708
G1 X151.063 Y78.254 E0.50642
G1 X151.602 Y78.254 E0.01708
G1 X139.762 Y66.414 E0.53057
G1 X139.762 Y65.876 E0.01708
G1 X152.141 Y78.254 E0.55472
G1 X152.680 Y78.254 E0.01708
G1 X139.762 Y65.337 E0.57887
G1 X139.762 Y64.798 E0.01708
G1 X153.219 Y78.254 E0.60302
G1 X153.758 Y78.254 E0.01708
G1 X139.762 Y64.259 E0.62718
G1 X139.762 Y63.720 E0.01708
G1 X154.297 Y78.254 E0.65133
G1 X154.836 Y78.254 E0.01708
G1 X139.762 Y63.181 E0.67548
G1 X139.762 Y62.642 E0.01708
G1 X155.375 Y78.254 E0.69963
G1 X155.914 Y78.254 E0.01708
G1 X139.762 Y62.103 E0.72378
G1 X139.762 Y61.564 E0.01708
G1 X156.453 Y78.254 E0.74793
G1 X156.991 Y78.254 E0.01708
G1 X139.762 Y61.014 E0.77234
G1 X140.290 Y61.014 E0.01672
G1 X157.530 Y78.254 E0.77259
G1 X158.069 Y78.254 E0.01708
G1 X140.829 Y61.014 E0.77259
G1 X141.368 Y61.014 E0.01708
G1 X158.608 Y78.254 E0.77259
G1 X159.147 Y78.254 E0.01708
G1 X141.887 Y60.994 E0.77346
G1 X141.887 Y60.455 E0.01708
G1 X159.686 Y78.254 E0.79761
G1 X160.225 Y78.254 E0.01708
G1 X141.887 Y59.916 E0.82177
G1 X141.887 Y59.377 E0.01708
G1 X160.764 Y78.254 E0.84592
G1 X161.303 Y78.254 E0.01708
G1 X141.887 Y58.839 E0.87007
G1 X141.887 Y58.300 E0.01708
G1 X161.842 Y78.254 E0.89422
G1 X162.381 Y78.254 E0.01708
G1 X141.887 Y57.761 E0.91837
G1 X141.887 Y57.222 E0.01708
G1 X162.920 Y78.254 E0.94252
G1 X163.459 Y78.254 E0.01708
G1 X141.887 Y56.683 E0.96667
G1 X141.887 Y56.144 E0.01708
G1 X163.998 Y78.254 E0.99083
G1 X164.537 Y78.254 E0.01708
G1 X141.887 Y55.605 E1.01498
G1 X141.887 Y55.534 E0.00225
G1 X142.355 Y55.534 E0.01483
G1 X165.076 Y78.254 E1.01816
G1 X165.614 Y78.254 E0.01708
G1 X142.894 Y55.534 E1.01816
G1 X143.433 Y55.534 E0.01708
G1 X166.153 Y78.254 E1.01816
G1 X166.692 Y78.254 E0.01708
G1 X143.972 Y55.534 E1.01816
G1 X144.511 Y55.534 E0.01708
G1 X167.231 Y78.254 E1.01816
G1 X167.770 Y78.254 E0.01708
G1 X145.050 Y55.534 E1.01816
G1 X145.589 Y55.534 E0.01708
G1 X168.309 Y78.254 E1.01816
G1 X168.848 Y78.254 E0.01708
G1 X146.128 Y55.534 E1.01816
G1 X146.667 Y55.534 E0.01708
G1 X169.387 Y78.254 E1.01816
G1 X169.926 Y78.254 E0.01708
G1 X147.206 Y55.534 E1.01816
G1 X147.745 Y55.534 E0.01708
G1 X170.465 Y78.254 E1.01816
G1 X171.004 Y78.254 E0.01708
G1 X148.284 Y55.534 E1.01816
G1 X148.823 Y55.534 E0.01708
G1 X171.043 Y77.754 E0.99575
G1 X171.043 Y77.215 E0.01708
G1 X149.361 Y55.534 E0.97160
G1 X149.900 Y55.534 E0.01708
G1 X171.043 Y76.676 E0.94745
G1 X171.043 Y76.137 E0.01708
G1 X150.439 Y55.534 E0.92329
G1 X150.978 Y55.534 E0.01708
G1 X171.043 Y75.598 E0.89914
G1 X171.043 Y75.059 E0.01708
G1 X151.517 Y55.534 E0.87499
G1 X152.056 Y55.534 E0.01708
G1 X171.043 Y74.520 E0.85084
G1 X171.043 Y73.981 E0.01708
G1 X152.595 Y55.534 E0.82669
G1 X153.134 Y55.534 E0.01708
G1 X171.043 Y73.442 E0.80254
G1 X171.043 Y72.904 E0.01708
G1 X153.673 Y55.534 E0.77839
G1 X154.212 Y55.534 E0.01708
G1 X171.043 Y72.365 E0.75423
G1 X171.043 Y71.826 E0.01708
G1 X154.751 Y55.534 E0.73008
G1 X155.290 Y55.534 E0.01708
G1 X171.043 Y71.287 E0.70593
G1 X171.043 Y70.748 E0.01708
G1 X155.829 Y55.534 E0.68178
G1 X156.368 Y55.534 E0.01708
G1 X171.043 Y70.209 E0.65763
G1 X171.043 Y69.670 E0.01708
G1 X156.907 Y55.534 E0.63348
G1 X157.446 Y55.534 E0.01708
G1 X171.043 Y69.131 E0.60933
G1 X171.043 Y68.592 E0.01708
G1 X157.984 Y55.534 E0.58517
G1 X158.523 Y55.534 E0.01708
G1 X171.043 Y68.053 E0.56102
G1 X171.043 Y67.514 E0.01708
G1 X159.062 Y55.534 E0.53687
G1 X159.601 Y55.534 E0.01708
G1 X171.043 Y66.975 E0.51272
G1 X171.043 Y66.436 E0.01708
G1 X160.140 Y55.534 E0.48857
G1 X160.679 Y55.534 E0.01708
G1 X171.043 Y65.897 E0.46442
G1 X171.043 Y65.358 E0.01708
G1 X161.218 Y55.534 E0.44027
G1 X161.757 Y55.534 E0.01708
G1 X171.043 Y64.819 E0.41611
G1 X171.043 Y64.281 E0.01708
G1 X162.296 Y55.534 E0.39196
G1 X162.835 Y55.534 E0.01708
G1 X171.043 Y63.742 E0.36781
G1 X171.043 Y63.203 E0.01708
G1 X163.374 Y55.534 E0.34366
G1 X163.913 Y55.534 E0.01708
G1 X171.212 Y62.833 E0.32711
G1 F8640
G1 X168.885 Y60.506 E-0.76000
G1 E-0.04000 F2100.00000
G1 Z0.800 F10800.000
G1 X171.212 Y59.061
G1 Z0.200
G1 E0.80000 F2100.00000
G1 F1200
G1 X170.930 Y58.779 E0.01264
G1 X170.806 Y58.903 E0.00559
G1 X170.628 Y59.015 E0.00666
G1 X171.043 Y59.430 E0.01859
G1 X171.043 Y59.969 E0.01708
G1 X170.280 Y59.206 E0.03419
G1 X169.876 Y59.341 E0.01350
G1 X171.043 Y60.508 E0.05229
G1 X171.043 Y61.047 E0.01708
G1 X169.389 Y59.393 E0.07413
G1 X168.902 Y59.338 E0.01552
G1 X168.737 Y59.280 E0.00553
G1 X171.043 Y61.586 E0.10332
G1 X171.043 Y62.125 E0.01708
G1 X164.452 Y55.534 E0.29536
G1 X164.991 Y55.534 E0.01708
G1 X167.266 Y57.809 E0.10197
G1 X167.209 Y57.645 E0.00553
G1 X167.154 Y57.158 E0.01552
G1 X165.530 Y55.534 E0.07278
G1 X166.069 Y55.534 E0.01708
G1 X167.205 Y56.671 E0.05095
G1 X167.340 Y56.267 E0.01350
G1 X166.608 Y55.534 E0.03284
G1 X167.146 Y55.534 E0.01708
G1 X167.531 Y55.919 E0.01725
G1 X167.643 Y55.741 E0.00666
G1 X167.768 Y55.616 E0.00559
G1 X167.516 Y55.364 E0.01130
G1 F8640
G1 X167.768 Y55.616 E-0.08231
G1 X167.643 Y55.741 E-0.04070
G1 X167.531 Y55.919 E-0.04851
G1 X167.146 Y55.534 E-0.12569
G1 X166.608 Y55.534 E-0.12444
G1 X167.340 Y56.267 E-0.23930
G1 X167.205 Y56.671 E-0.09836
G1 X167.203 Y56.669 E-0.00069
G1 E-0.04000 F2100.00000
G1 Z0.800 F10800.000
G1 X149.616 Y78.424
G1 Z0.200
G1 E0.80000 F2100.00000
G1 F1200
G1 X147.630 Y76.437 E0.08902
G1 X147.653 Y76.644 E0.00659
G1 X147.617 Y76.964 E0.01019
G1 X148.907 Y78.254 E0.05783
G1 X148.368 Y78.254 E0.01708
G1 X147.505 Y77.390 E0.03871
G1 X147.389 Y77.686 E0.01008
G1 X147.340 Y77.764 E0.00291
G1 X147.829 Y78.254 E0.02195
G1 X147.291 Y78.254 E0.01708
G1 X147.003 Y77.966 E0.01290
G1 F8640
G1 X147.291 Y78.254 E-0.09399
G1 X147.829 Y78.254 E-0.12444
G1 X147.340 Y77.764 E-0.15996
G1 X147.389 Y77.686 E-0.02124
G1 X147.505 Y77.390 E-0.07342
G1 X148.368 Y78.254 E-0.28205
G1 X148.390 Y78.254 E-0.00490
G1 E-0.04000 F2100.00000
G1 Z0.800 F10800.000
G1 X143.678 Y77.472
G1 Z0.200
G1 E0.80000 F2100.00000
G1 F1200
G1 X143.631 Y77.198 E0.00463
G1 X143.584 Y76.639 E0.00400
G1 X143.608 Y76.227 E0.00459
G1 X143.631 Y76.090 E0.00193
G1 X143.654 Y75.953 E0.00231
G1 X143.678 Y75.816 E0.00270
G1 F8640
G1 X143.654 Y75.953 E-0.03206
G1 E-0.76794 F2100.00000
G1 Z0.800 F10800.000
G1 X193.192 Y75.807
G1 Z0.200
G1 E0.80000 F2100.00000
G1 F1200
G1 X193.232 Y75.454 E0.01114
G1 X193.349 Y75.119 E0.01114
G1 X193.538 Y74.818 E0.01114
G1 X193.789 Y74.567 E0.01114
G1 X194.094 Y74.376 E0.01126
G1 X194.491 Y74.253 E0.01303
G1 X194.778 Y74.221 E0.00908
G1 X195.131 Y74.261 E0.01114
G1 X195.467 Y74.378 E0.01114
G1 X195.768 Y74.567 E0.01114
G1 X196.019 Y74.818 E0.01114
G1 X196.208 Y75.119 E0.01114
G1 X196.325 Y75.454 E0.01114
G1 X196.365 Y75.807 E0.01114
G1 X196.325 Y76.164 E0.01126
G1 X196.173 Y76.551 E0.01303
G1 X196.019 Y76.796 E0.00908
G1 X195.768 Y77.047 E0.01114
G1 X195.467 Y77.236 E0.01114
G1 X195.131 Y77.354 E0.01114
G1 X194.778 Y77.394 E0.01114
G1 X194.422 Y77.353 E0.01126
G1 X194.035 Y77.202 E0.01303
G1 X193.789 Y77.047 E0.00908
G1 X193.538 Y76.796 E0.01114
G1 X193.349 Y76.495 E0.01114
G1 X193.232 Y76.160 E0.01114
G1 X193.199 Y75.867 E0.00926
G1 X192.885 Y75.630 F10800.000
G1 X193.106 Y76.816
G1 F1200
G1 X193.242 Y77.033 E0.00802
G1 X193.553 Y77.344 E0.01380
G1 X193.864 Y77.540 E0.01153
G1 X194.273 Y77.700 E0.01378
G1 X193.106 Y77.700 E0.03661
G1 X193.106 Y76.876 E0.02583
G1 F8640
G1 X193.242 Y77.033 E-0.04787
G1 X193.553 Y77.344 E-0.10164
G1 X193.864 Y77.540 E-0.08487
G1 X194.273 Y77.700 E-0.10145
G1 X193.106 Y77.700 E-0.26958
G1 X193.106 Y77.031 E-0.15459
G1 E-0.04000 F2100.00000
